X: 19737
T: Jenny Picking Cockles
R: reel
M: 4/4
K: Dmixolydian
|:A2dc AG~G2|FGAB cA~A2|dedc AG~G2|AGcG EDDG|
A2dc AG~G2|FGAB cA (3Bcd|ecdc AGEF|1 GEcG EDDF:|2 GEcG EDDe||
|:~f3d ~e3d|cA~A2 (3Bcd eg|~f3d edcd|eaag edde|
~f3d ~e3d|cA~A2 G2cd|ecdc AGEF|1 GEcG EDDe:|2 GEcG EDD2||

